Simply-White-Circles/scalable/apps/image-viewer.svg

<svg xmlns="http://www.w3.org/2000/svg" width="48" height="48" viewBox="0 0 12.7 12.7"><path d="M6.34.07a6.29 6.29 0 0 0-6.29 6.3 6.29 6.29 0 0 0 6.3 6.28 6.29 6.29 0 0 0 6.28-6.29A6.29 6.29 0 0 0 6.34.07zm-.01.94a5.4 5.4 0 0 1 5.4 5.4 5.4 5.4 0 0 1-5.4 5.41 5.4 5.4 0 0 1-5.41-5.4A5.4 5.4 0 0 1 6.32 1zm-3.2 1.58a.2.2 0 0 0-.2.2v6.33c0 .11.1.2.2.2h5.04l-.52-.5c-.15.08-.3.17-.46.22a2.3 2.3 0 0 1-1.6-.07 2.34 2.34 0 0 1-1.24-1.24c-.03-.07-.03-.16-.05-.24h-.73a.14.14 0 0 1-.14-.13V3.24c0-.08.06-.14.14-.14h5.31c.08 0 .14.06.14.14v4.12c0 .07-.06.13-.14.13H8.7v.04a2.2 2.2 0 0 1-.24.49l1.06 1.05V2.8a.2.2 0 0 0-.2-.21H3.13zM6.5 4.72a2.12 2.12 0 0 0-2.11 2.12 2.12 2.12 0 0 0 3.31 1.74L9.11 10a.39.39 0 1 0 .55-.55L8.24 8.04c.23-.34.37-.76.37-1.2A2.12 2.12 0 0 0 6.5 4.72zm0 .77a1.34 1.34 0 0 1 1.35 1.35c0 .75-.6 1.34-1.35 1.34a1.34 1.34 0 0 1-1.35-1.34c0-.75.6-1.35 1.35-1.35z" fill="#e6e6e6"/></svg>

<?xml version="1.0" encoding="UTF-8" standalone="no"?>
<svg
   xmlns:dc="http://purl.org/dc/elements/1.1/"
   xmlns:cc="http://creativecommons.org/ns#"
   xmlns:rdf="http://www.w3.org/1999/02/22-rdf-syntax-ns#"
   xmlns:svg="http://www.w3.org/2000/svg"
   xmlns="http://www.w3.org/2000/svg"
   xmlns:sodipodi="http://sodipodi.sourceforge.net/DTD/sodipodi-0.dtd"
   xmlns:inkscape="http://www.inkscape.org/namespaces/inkscape"
   width="48"
   height="48"
   viewBox="0 0 12.7 12.7"
   version="1.1"
   id="svg4"
   sodipodi:docname="image-viewer.svg"
   inkscape:version="0.92.4 (5da689c313, 2019-01-14)">
  <metadata
     id="metadata10">
    <rdf:RDF>
      <cc:Work
         rdf:about="">
        <dc:format>image/svg+xml</dc:format>
        <dc:type
           rdf:resource="http://purl.org/dc/dcmitype/StillImage" />
        <dc:title></dc:title>
      </cc:Work>
    </rdf:RDF>
  </metadata>
  <defs
     id="defs8" />
  <sodipodi:namedview
     pagecolor="#ffffff"
     bordercolor="#666666"
     borderopacity="1"
     objecttolerance="10"
     gridtolerance="10"
     guidetolerance="10"
     inkscape:pageopacity="0"
     inkscape:pageshadow="2"
     inkscape:window-width="1087"
     inkscape:window-height="480"
     id="namedview6"
     showgrid="false"
     inkscape:zoom="4.9166667"
     inkscape:cx="2.1355932"
     inkscape:cy="24"
     inkscape:window-x="0"
     inkscape:window-y="25"
     inkscape:window-maximized="0"
     inkscape:current-layer="svg4" />
  <path
     d="M 6.34,0.07 A 6.29,6.29 0 0 0 0.05,6.37 6.29,6.29 0 0 0 6.35,12.65 6.29,6.29 0 0 0 12.63,6.36 6.29,6.29 0 0 0 6.34,0.07 Z M 6.33,1.01 a 5.4,5.4 0 0 1 5.4,5.4 5.4,5.4 0 0 1 -5.4,5.41 A 5.4,5.4 0 0 1 0.92,6.42 5.4,5.4 0 0 1 6.32,1 Z m -3.2,1.58 a 0.2,0.2 0 0 0 -0.2,0.2 v 6.33 c 0,0.11 0.1,0.2 0.2,0.2 H 8.17 L 7.65,8.82 C 7.5,8.9 7.35,8.99 7.19,9.04 A 2.3,2.3 0 0 1 5.59,8.97 2.34,2.34 0 0 1 4.35,7.73 C 4.32,7.66 4.32,7.57 4.3,7.49 H 3.57 A 0.14,0.14 0 0 1 3.43,7.36 V 3.24 C 3.43,3.16 3.49,3.1 3.57,3.1 h 5.31 c 0.08,0 0.14,0.06 0.14,0.14 v 4.12 c 0,0.07 -0.06,0.13 -0.14,0.13 H 8.7 V 7.53 A 2.2,2.2 0 0 1 8.46,8.02 L 9.52,9.07 V 2.8 A 0.2,0.2 0 0 0 9.32,2.59 Z M 6.5,4.72 A 2.12,2.12 0 0 0 4.39,6.84 2.12,2.12 0 0 0 7.7,8.58 L 9.11,10 A 0.39,0.39 0 1 0 9.66,9.45 L 8.24,8.04 C 8.47,7.7 8.61,7.28 8.61,6.84 A 2.12,2.12 0 0 0 6.5,4.72 Z m 0,0.77 a 1.34,1.34 0 0 1 1.35,1.35 c 0,0.75 -0.6,1.34 -1.35,1.34 A 1.34,1.34 0 0 1 5.15,6.84 c 0,-0.75 0.6,-1.35 1.35,-1.35 z"
     id="path2"
     inkscape:connector-curvature="0"
     style="fill:#e6e6e6" />
</svg>
